src/assets/skillIcons/websocket-logo.svg

<?xml version="1.0" encoding="UTF-8" standalone="no"?>
<!-- Uploaded to: SVG Repo, www.svgrepo.com, Generator: SVG Repo Mixer Tools -->
<svg width="800px" height="800px" viewBox="0 -31.5 256 256" version="1.1" xmlns="http://www.w3.org/2000/svg" xmlns:xlink="http://www.w3.org/1999/xlink" preserveAspectRatio="xMidYMid">
    <g>
        <path d="M192.440223,144.644612 L224.220111,144.644612 L224.220111,68.3393384 L188.415329,32.5345562 L165.943007,55.0068785 L192.440223,81.5040943 L192.440223,144.644612 L192.440223,144.644612 Z M224.303963,160.576482 L178.017688,160.576482 L113.451687,160.576482 L86.954471,134.079266 L98.1906322,122.843105 L120.075991,144.728464 L165.104487,144.728464 L120.746806,100.286931 L132.06682,88.9669178 L176.4245,133.324599 L176.4245,88.2961022 L154.622994,66.4945955 L165.775303,55.3422863 L110.684573,0 L56.3485097,0 L56.3485097,0 L0,0 L31.6960367,31.6960367 L31.6960367,31.7798886 L31.8637406,31.7798886 L97.4359646,31.7798886 L120.662954,55.0068785 L86.7029152,88.9669178 L63.4759253,65.7399279 L63.4759253,47.7117589 L31.6960367,47.7117589 L31.6960367,78.9046839 L86.7029152,133.911562 L64.3144448,156.300033 L100.119227,192.104815 L154.45529,192.104815 L256,192.104815 L256,192.104815 L224.303963,160.576482 L224.303963,160.576482 Z" fill="#231F20">
</path>
    </g>
</svg>

<svg xmlns="http://www.w3.org/2000/svg" width="800" height="800" preserveAspectRatio="xMidYMid" viewBox="0 -31.5 256 256"><path fill="#231F20" d="M192.44 144.645h31.78V68.339l-35.805-35.804-22.472 22.472 26.497 26.497zm31.864 15.931H113.452L86.954 134.08l11.237-11.236 21.885 21.885h45.028l-44.357-44.441 11.32-11.32 44.357 44.358V88.296l-21.801-21.801 11.152-11.153L110.685 0H0l31.696 31.696v.084h65.74l23.227 23.227-33.96 33.96L63.476 65.74V47.712h-31.78v31.193l55.007 55.007L64.314 156.3l35.805 35.805H256z"/></svg>
